src/Pure/16/symbolic/actions/view-paged-symbolic.svg

<?xml version="1.0" encoding="UTF-8" standalone="no"?>
<svg
   width="16"
   height="16.031"
   enable-background="new"
   version="1.1"
   id="svg2"
   sodipodi:docname="view-paged-symbolic.svg"
   inkscape:version="1.4.2 (ebf0e940d0, 2025-05-08)"
   xmlns:inkscape="http://www.inkscape.org/namespaces/inkscape"
   xmlns:sodipodi="http://sodipodi.sourceforge.net/DTD/sodipodi-0.dtd"
   xmlns="http://www.w3.org/2000/svg"
   xmlns:svg="http://www.w3.org/2000/svg">
  <defs
     id="defs2">
     <style
        id="current-color-scheme"
        type="text/css">
        .ColorScheme-Text { color:#363636; }
     </style>
  </defs>
  <sodipodi:namedview
     id="namedview2"
     pagecolor="#ffffff"
     bordercolor="#000000"
     borderopacity="0.25"
     inkscape:showpageshadow="2"
     inkscape:pageopacity="0.0"
     inkscape:pagecheckerboard="0"
     inkscape:deskcolor="#d1d1d1"
     inkscape:zoom="49.591416"
     inkscape:cx="7.9953353"
     inkscape:cy="8.0155001"
     inkscape:window-width="1920"
     inkscape:window-height="1010"
     inkscape:window-x="0"
     inkscape:window-y="0"
     inkscape:window-maximized="1"
     inkscape:current-layer="svg2" />
  <path
     id="path1"
     style="fill:currentColor;fill-opacity:1"
     class="ColorScheme-Text"
     d="M 5 0.03125 C 3.8920167 0.03125 3.0000268 0.92327316 3 2.03125 C 1.892 2.03125 1 2.92325 1 4.03125 L 1 14.03125 C 1 15.13925 1.892 16.03125 3 16.03125 L 11 16.03125 C 12.108 16.03125 13 15.13925 13 14.03125 C 14.108 14.03125 15 13.13925 15 12.03125 L 15 2.03125 C 15 0.92325 14.108 0.03125 13 0.03125 L 5 0.03125 z M 5 1.03125 L 13 1.03125 C 13.554 1.03125 14 1.47725 14 2.03125 L 14 12.03125 C 14 12.58525 13.554 13.03125 13 13.03125 L 13 4.03125 C 13 2.92325 12.108 2.03125 11 2.03125 L 4 2.03125 C 4.0000268 1.4772732 4.4460167 1.03125 5 1.03125 z M 3 3.03125 L 11 3.03125 C 11.554 3.03125 12 3.47725 12 4.03125 L 12 14.03125 C 12 14.58525 11.554 15.03125 11 15.03125 L 3 15.03125 C 2.446 15.03125 2 14.58525 2 14.03125 L 2 4.03125 C 2 3.47725 2.446 3.03125 3 3.03125 z " />
</svg>

<svg width="16" height="16.031" enable-background="new" version="1.1" xmlns="http://www.w3.org/2000/svg">
 <path d="m3 2.0312c-1.108 0-2 0.892-2 2v10c0 1.108 0.892 2 2 2h8c1.108 0 2-0.892 2-2v-10c0-1.108-0.892-2-2-2h-8zm0 1h8c0.554 0 1 0.446 1 1v10c0 0.554-0.446 1-1 1h-8c-0.554 0-1-0.446-1-1v-10c0-0.554 0.446-1 1-1z" fill="#363636"/>
 <path d="m5 0.03125c-1.108 0-2 0.892-2 2h1c0-0.554 0.446-1 1-1h8c0.554 0 1 0.446 1 1v10c0 0.554-0.446 1-1 1v1c1.108 0 2-0.892 2-2v-10c0-1.108-0.892-2-2-2h-8z" fill="#363636"/>
</svg>
